packages/sources/icons/src/vitamix/drive-line.svg

<svg width="16" height="16" viewBox="0 0 16 16" xmlns="http://www.w3.org/2000/svg"><path d="M6.06465 4.10001L2.87331 9.62867L4.04331 11.65L7.23331 6.12334L6.06465 4.10001ZM5.19798 12.316H11.5766L12.744 10.2933H6.36665L5.19865 12.316H5.19798ZM12.7406 8.96001L9.54998 3.43334H7.21998L10.4113 8.96001H12.7413H12.7406ZM5.67998 2.10001H10.32L14.6666 9.62934L12.3466 13.6493H3.65998L1.33331 9.62934L5.67998 2.10001ZM8.00331 7.45734L7.13531 8.96001H8.87065L8.00331 7.45734Z"/></svg>

<svg width="16" height="16" xmlns="http://www.w3.org/2000/svg"><path d="M6.065 4.1 2.873 9.629l1.17 2.021 3.19-5.527L6.065 4.1Zm-.867 8.216h6.379l1.167-2.023H6.367l-1.168 2.023h-.001Zm7.543-3.356L9.55 3.433H7.22l3.191 5.527h2.33ZM5.68 2.1h4.64l4.347 7.53-2.32 4.02H3.66L1.333 9.63 5.68 2.1Zm2.323 5.357L7.135 8.96h1.736l-.868-1.503Z"/></svg>
